!!!OTL-incipit: ICH STAND AUF HOHEN BERGEN
!!!ARE: Europa, Mitteleuropa, Deutschland
!!!SCT: Z0062
!!!TXL: @@DE
!!!YEM: Copyright 1995, estate of Helmut Schaffrath.
**kern	**text
*ICvox	*
*M4/4	*
*met(c)	*
*k[]	*
*a:	*
!LO:TX:a:t=Andere Weiſe.	!
{8ccL	Jch
8ddJ	.
=1	=1
4.ee	ſtand
8dd	auf
4.cc	ho-
8b	-hen
=2	=2
4a	Ber-
8ccL	.
8ddJ	.
4ee	-gen,
8r}	.
{8ee	und
=3	=3
4ff	ſah
4ff	wohl
8dd	über
8dd	.
4dd	den
=4	=4
4ee	Rhein,
8r	.
4r}	.
{8ee	ein
8ee	Schifflein
8ff	.
=5	=5
4gg	ſah
4ee	ich
(4dd	fah-
8ccL	.
8ddJ)	.
=6	=6
4ee	-ren,
8r	.
4r}	.
{8dd	ein
8dd	Schifflein
8ee	.
=7	=7
4ff	ſah
4dd	ich
(4cc	fah-
8bL	.
8ccJ)	.
=8	=8
4dd	-ren,
4r	.
4r}	.
{4ee	her
=9	=9
4aa	Rit-
4cc	-ter
8ddL	wa-
8eeJ	.
8ccL	-ren
8bJ	.
=10	=10
4a	drei,
4r	.
4r}	.
{4ee	der
=11	=11
4aa	Rit-
4cc	-ter
8ddL	wa-
8eeJ	.
8ccL	-ren
8bJ	.
=12	=12
2a	drei.
4r}	.
==	==
!!!AGN: Sagen - Lied, Romanze
!!!ONB: ESAC (Essen Associative Code) Database: ZUCCAL
!!!AMT: simple quadruple
!!!AIN: vox
!!!EED: Helmut Schaffrath
!!!EEV: 1.0
!!!GTL: I. Ernste Romanzen und Sagen.
!!!URL-scan: https://www.digitale-sammlungen.de/de/view/bsb11160571?page=127
!!!ENC: Anna Maria Matuszewska
!!!EEV: 2025/01/24
*-	*-
